X:1
T:Title
%%score { 1 | 2 }
L:1/8
Q:1/4=100
M:4/4
K:Eb
V:1 treble nm="Grand Piano"
V:2 bass 
V:1
 GGAA B2 GG | ecBG [DF]2 z [DF] | GGAA B2 cc | BG [DF]>[DF] E4 | [DF][DF] [DB]2 GG B2 | %5
w: Edwin~H.~Bookmyer * * * * * *|||||
 ccBG [DF]4 |[M:17/16] GGAAB-<Be3/2[Ec] |[M:4/4] [EB][B,EG] [A,DF]>[A,DF] [G,E]4 |] %8
w: |||
V:2
 [E,B,E][E,B,E][F,B,D][F,B,D] [G,B,E]2 [E,B,E][E,B,E] | %1
 [A,CE][A,E][G,B,E][E,B,E] [B,,B,]2 z [B,,B,] | %2
 [E,B,E][E,B,E][F,B,D][F,B,D][K:treble] [G,B,E]2 [A,E][A,EA] | %3
 [B,EG][B,E][K:bass] [B,,A,]>[B,,A,] [E,G,]4 | [B,,B,][B,,B,] [B,,B,]2 [E,B,E][E,B,E] [E,G,E]2 | %5
 [A,E][A,E][G,B,E][E,B,E] [B,,B,]4 | %6
[M:17/16] [E,B,E][E,B,E][F,B,D][F,B,D][G,B,E]-<[G,B,E][A,CE]3/2[A,,A,] | %7
[M:4/4] [B,,G,]B,, B,,>B,, E,4 |] %8

